svg/fluentui-system-icons/ic_fluent_button_16_filled.svg

<svg width="16" height="16" viewBox="0 0 16 16" fill="none" xmlns="http://www.w3.org/2000/svg">
<path d="M1 5.5C1 4.11929 2.11929 3 3.5 3H12.5C13.8807 3 15 4.11929 15 5.5V9.5C15 10.8807 13.8807 12 12.5 12H3.5C2.11929 12 1 10.8807 1 9.5V5.5ZM7 7.5C7 7.77614 7.22386 8 7.5 8H12C12.2761 8 12.5 7.77614 12.5 7.5C12.5 7.22386 12.2761 7 12 7H7.5C7.22386 7 7 7.22386 7 7.5ZM6 7.5C6 6.67157 5.32843 6 4.5 6C3.67157 6 3 6.67157 3 7.5C3 8.32843 3.67157 9 4.5 9C5.32843 9 6 8.32843 6 7.5Z" fill="#212121"/>
</svg>

<svg xmlns="http://www.w3.org/2000/svg" width="16" height="16"><path d="M1 5.5A2.5 2.5 0 0 1 3.5 3h9A2.5 2.5 0 0 1 15 5.5v4a2.5 2.5 0 0 1-2.5 2.5h-9A2.5 2.5 0 0 1 1 9.5v-4Zm6 2a.5.5 0 0 0 .5.5H12a.5.5 0 0 0 0-1H7.5a.5.5 0 0 0-.5.5Zm-1 0a1.5 1.5 0 1 0-3 0 1.5 1.5 0 0 0 3 0Z"/></svg>
